X:1
T:Capt. Young of Banff’s
M:C|
L:1/8
R:Reel
B:William Morrison - Collection of Highland music, consisting of
B:strathspeys, reels, marches, waltzes & slow airs (c. 1813, pp. 4-5)
Z:AK/Fiddler’s Companion
K:C
e|Tc2 G>E CEGc|ecBc dDDB|cA GE CEGc|Bd GB c/c/c ce|
Tc2 G>E CEGc|ecBc dDDB|cAGE AFDB,|CAGE C/C/C C||
e|(cdef) ge cage|fdec dDDB|cege afec|BdGB c/c/c ce|
(ce/f/) ge cage|fdec dDDB|cA ec AF fd|eg GB c/c/c c||

